X:247
T:Allan MacColl of Corpach
C:Joe Buchanan's Scottish Tome - Page 301.2
I:301 2
C:P.M. Willie Taylor
Z:Carl Allison
R:Jig
L:1/8
M:6/8
K:G
"D7"ge | "G"dBG AGE | DEG "C"EDE | "G"DEG "Am"AGA | "Em"Bee "D7"dBd |
"C"ede ged | "G"BAB GED | DEG "Am"AGA | "D7"BGG "G"G2 :|
"D7"Bd | "C"ede ged | "G"BAB GED | DEG "Am"AGA | "Em"Bee "D7"dBd |
"C"ede ged | "G"BAB GED | DEG "Am"AGA | "D7"BGG "G"G2 :|
